X:1
T:Mort en malheur
T:Pierre Colin
T:Source : Livre X de 28 chansons nouvelles à 4 parties---Paris---P.Attaingnant---1541. Editor : André Vierendeels (22/05/18) Notes : Original clefs : C1, C3, C3, F4 Original note values have been halved Editorial accidentals above the staff Square bracket indicates ligature
T:Mort en malheur
T:©
T:©
T:©
C:Pierre Colin
Z:©
%%score [ 1 [ 2 3 ] 4 ]
L:1/8
Q:1/4=120
M:2/2
K:F
V:1 treble nm="Soprano" snm="S"
V:2 treble-8 nm="Tenor 1" snm="T 1"
V:3 treble-8 nm="Tenor 2" snm="T 2"
V:4 bass nm="Bass" snm="B"
V:1
 d8 | c4 c4 | A2 G2 G2 FE | D2 C2 E2 F2 | D4 C4 | z2 c2 c4 | d4 c2 A2 | d3 c B2 A2 | GF F4 E2 | %9
w: Mort|en mal-|heur m'est seul- * *|* le suf- fi-|san- ce,|puis- que|des- poir pri-|vé _ _ ie|suys _ _ aus-|
w: For-|tu- ne|m'a gar- dé _ _|_ de io- ys-|san- ce,|A- mour|pour- tant m'a|ren- * * du|_ _ tout tran-|
 F8 :| F4 E2 F2 | DEFG A2 A2 | G2 G2 FEFG | AB c4 B2 | c4 z2 d2 | d2 d2 c2 c2- | c2 B2 c3 B | %17
w: si,|Or, il con-|vient _ _ _ _ que|ie de- meu- * * *|* * * re'ain-|sy, en|at- ten- dant se-|* cours _ _|
w: sy,||||||||
 AG A2 F2 A2- | AG G4 F2 | G4 z2 G2 | G3 F GABG | A2 G3 FED | E4 z2 C2 | F2 G2 A2 B2 | G2 A4 GF | %25
w: _ _ _ et con-|* * fort d'u-|ne, et|pour _ _ _ _ _|_ sça- * * *|voir d'où|pro- vient mon soul-||
w: ||||||||
 E4 z4 |: F8 | F4 G4 | A2 A2 c4 | z2 A2 c3 B | A2 G2 F2 A2 | GF F4 E2 | F8 :| %33
w: cy,|voy-|ez le|tort da- mour,|da- mour et|de for- tu- *||ne.|
w: ||||||||
V:2
 B8 | A4 G4 | F2 G2 G2 A2 | F2 f2 e2 de | fc f4 e2 | f4 z2 f2 | f2 f2 e2 d2- | dc A2 B2 c2 | %8
w: Mort|en mal-|heur m'est seul- le|suf- fi- san- * *||ce, puis-|que des- poir pri-|* * * vé ie|
w: For-|tu- ne|m'a gar- dé de|io- ys- san- * *||ce, A-|mour pour- tant m'a|_ _ _ ren- du|
 d2 c3 BAG | A8 :| d4 c2 B2 | B4 z2 f2 | f2 e2 d2 cB | A2 F2 f4 | e4 z2 g2 | g2 g2 e2 dc | %16
w: suys aus- * * *|si,|Or, il con-|vient que|ie de- meu- * *|* * re'ain-|sy, en|at- ten- dant _ _|
w: tout tran- * * *|sy,|||||||
 d2 d2 cBAG | F2 c2 d4- | d2 e2 d4 | B4 z2 c2 | cdec d2 d2 | c2 G2 c3 B | A2 G2 F4 | z2 G2 F2 G2 | %24
w: _ se- cours _ _ _|_ et con-|* fort d'u-|ne, et|pour _ _ _ _ sça-|voir d'où pro- vient|mon soul- cy,|d'où pro- vient|
w: ||||||||
 E4 F4 | G4 z4 |: d6 d2 | c3 d e4 | z2 c4 f2- | f2 ed e4 | z2 c2 f3 e | d2 B2 c4 | A8 :| %33
w: mon sou-|cy,|voy- ez|le- * tort|d'a- mour|_ _ _ _|et de _|_ for- tu-|ne.|
w: |||||||||
V:3
 f8 | f4 e4 | d2 d2 c2 c2 | B2 A2 G2 F2 | B3 A G4 | z2 A2 A2 A2 | B3 A G2 F2 | f3 e d2 c2 | %8
w: Mort|en mal-|heur m'est seul- le|suf- fi- san- *|* * ce,|puis- que des-|poir _ _ pri-|vé _ _ ie|
w: For-|tu- ne|m'a gar- dé de|io- ys- san- *|* * ce,|A- mour pour-|tant _ _ m'a|ren- * * du|
 B2 A2 G4 | F8 :| B4 G2 F2 | F4 z2 c2 | d2 c2 A3 B | c4 F4 | G4 z2 B2 | B2 B2 G4 | z2 G2 A2 c2- | %17
w: suys aus- *|si,|Or, il con-|vient que|ie de- meu- *|* re'ain-|sy, en|at- ten- dant|se- cours et|
w: tout tout tran-|sy,||||||||
 cBAG A2 A2 | B2 c2 A4 | G8 | z2 c2 c2 B2 | c4 G4 | c3 B AG A2 | F2 c4 d2- | dc c4 B2 | c4 z4 |: %26
w: _ _ _ _ _ con-|fort _ d'u-|ne,|et pour sça-|voir d'où|pro- * * * *|vient mon soul-||cy,|
w: |||||||||
 B8 | A4 c4 | c4 z2 A2- | A2 c3 BAG | F2 G2 A2 A2 | BAGF G4 | F8 :| %33
w: voy-|ez le|tort d'a-|* mour _ _ _|_ et de for-|tu- * * * *|ne.|
w: |||||||
V:4
 B,,8 | F,4 C,4 | D,2 G,,2 C,2 A,,2 | B,,2 F,,2 C,2 D,2 | B,,4 C,4 | F,,4 z2 F,2 | %6
w: Mort|en mal-|heur m'est seul- le|suf- fi- san- *||ce, puis-|
w: For-|tu- ne|m'a gar- dé de|io- ys- san- *||ce, A-|
 B,,2 B,,2 C,2 D,2 | D,2 D,2 G,,2 A,,2 | B,,2 F,,2 C,4 | F,,8 :| B,,4 C,2 D,2 | %11
w: que des- poir pri-|vé ie suys _|_ _ aus-|si,|Or, il con-|
w: mour pour- tant m'a|ren- du tout _|_ _ tran-|sy,||
 B,,C,D,E, F,2 F,,2 | B,,2 C,2 D,2 F,2- | F,E,D,C, D,4 |"^#" C,4 z2 G,2 | G,2 G,2 C,2 C,2 | %16
w: vient _ _ _ _ que|ie de- meu- *|* * * * re'ain-|sy, en|at- ten- dant se-|
w: |||||
 G,4 z2 C,2 | F,3 E, D,2 F,2 | G,2 C,2 D,4 | G,,4 z2 C,2 | C,4 G,,4 | C,8 | z2 C,2 F,3 E, | %23
w: cours et|con- * * *|* fort d'u-|ne, et|pour sça-|voir|d'où pro- vient|
w: |||||||
 D,2 C,B,, A,,2 G,,2 | C,4 D,4 | C,4 z4 |: B,,8 | F,,4 C,4 | A,,4 F,,4 | F,4 z2 C,2 | %30
w: mon _ _ _ _|_ soul-|cy,|voy-|ez le|tort d'a-|mour et|
w: |||||||
 F,3 E, D,2 C,2 | B,,2 D,2 C,4 | F,,8 :| %33
w: de _ _ for-|tu- * *|ne.|
w: |||

